svg/emoji_u1f6b8.svg

<svg width="128" height="128" viewBox="0 0 128 128" fill="none" xmlns="http://www.w3.org/2000/svg">
<path d="M69.6098 6.36009L121.81 58.3601C124.8 61.4901 124.71 66.4401 121.61 69.4601L69.6098 121.66C66.4898 124.78 61.4298 124.78 58.3098 121.66L6.3098 69.4601C3.2698 66.4201 3.1798 61.5101 6.1098 58.3601L58.3098 6.36009C61.4298 3.25009 66.4898 3.25009 69.6098 6.36009Z" fill="#F2A600" style="fill:#F2A600;fill:color(display-p3 0.9490 0.6510 0.0000);fill-opacity:1;"/>
<path d="M64.7097 10.4602L113.21 58.8602C116 61.7502 115.92 66.3502 113.03 69.1402C113.02 69.1502 113.02 69.1502 113.01 69.1602L64.6097 117.66C61.7097 120.56 57.0197 120.56 54.1197 117.67C54.1197 117.67 54.1197 117.67 54.1097 117.66L5.80973 69.1602C2.90973 66.3702 2.81973 61.7702 5.59973 58.8702C5.59973 58.8702 5.59973 58.8702 5.60973 58.8602L54.2097 10.4602C57.1097 7.56016 61.8097 7.56016 64.7097 10.4602Z" fill="#FFCC32" style="fill:#FFCC32;fill:color(display-p3 1.0000 0.8000 0.1961);fill-opacity:1;"/>
<g opacity="0.2">
<path opacity="0.2" d="M71.6094 25.9602C75.1994 25.9602 78.1094 28.8702 78.1094 32.4602C78.1094 36.0502 75.1994 38.9602 71.6094 38.9602C68.0194 38.9602 65.1094 36.0502 65.1094 32.4602C65.0994 28.8802 68.0094 25.9702 71.5894 25.9602C71.5994 25.9602 71.6094 25.9602 71.6094 25.9602Z" fill="#424242" style="fill:#424242;fill:color(display-p3 0.2588 0.2588 0.2588);fill-opacity:1;"/>
<path opacity="0.2" d="M72.5097 39.6602C73.6597 39.6602 74.8097 39.8302 75.9097 40.1602C77.3897 40.6302 78.6097 41.6702 79.3097 43.0602L83.8097 51.2602C84.0097 51.5602 84.2097 51.7602 84.4097 52.0602L93.2097 59.1602C94.2197 60.0102 94.3997 61.5002 93.6097 62.5602C93.1397 63.1302 92.4497 63.4602 91.7097 63.4602C91.1697 63.4502 90.6497 63.2702 90.2097 62.9602L80.7097 55.2602C80.5497 55.1202 80.4097 54.9502 80.3097 54.7602C80.2097 54.6602 80.2097 54.5602 80.1097 54.4602L78.9097 52.2602V62.7602C78.9197 63.7502 79.0897 64.7302 79.4097 65.6602L87.9097 87.8602C88.5097 89.4602 87.7097 91.2502 86.1097 91.8602C85.7497 91.9702 85.3797 92.0402 85.0097 92.0602C83.7297 92.0202 82.5997 91.2402 82.1097 90.0602L73.6097 67.7602C73.3797 67.1402 72.7697 66.7402 72.1097 66.7602C71.2397 66.7502 70.5197 67.4502 70.5097 68.3202C70.5097 68.3302 70.5097 68.3502 70.5097 68.3602L70.4097 75.7602C70.3897 76.1002 70.3197 76.4402 70.2097 76.7602C70.1997 77.1502 70.0997 77.5202 69.9097 77.8602L63.5097 90.4602C62.9197 91.4402 61.8597 92.0502 60.7097 92.0602C60.2297 92.0702 59.7497 91.9602 59.3097 91.7602C57.7997 90.9502 57.2197 89.0802 58.0097 87.5602L64.3097 75.3602L64.5097 65.6602V63.8602C64.3097 64.0502 64.0697 64.1902 63.8097 64.2602C63.5197 64.3702 63.2197 64.4402 62.9097 64.4602C61.9197 64.4602 61.0197 63.8702 60.6097 62.9602L56.9097 53.5602C56.5097 52.6102 56.7897 51.5002 57.6097 50.8602L65.3097 42.4602C66.9097 40.5602 69.8097 39.6602 72.5097 39.6602ZM64.4097 59.4602V51.0602C64.4097 50.8602 64.3097 50.8602 64.2097 50.8602C64.1097 50.8602 64.1097 50.8602 64.0097 50.9602L62.3097 52.8602C62.0997 53.0702 62.0197 53.3802 62.1097 53.6602L64.4097 59.4602Z" fill="#424242" style="fill:#424242;fill:color(display-p3 0.2588 0.2588 0.2588);fill-opacity:1;"/>
<path opacity="0.2" d="M45.3096 38.7603C48.8996 38.7603 51.8096 41.6703 51.8096 45.2603C51.8096 48.8503 48.8996 51.7603 45.3096 51.7603C41.7196 51.7603 38.8096 48.8503 38.8096 45.2603C38.7996 41.6803 41.7096 38.7703 45.2896 38.7603C45.2996 38.7603 45.3096 38.7603 45.3096 38.7603Z" fill="#424242" style="fill:#424242;fill:color(display-p3 0.2588 0.2588 0.2588);fill-opacity:1;"/>
<path opacity="0.2" d="M45.5094 52.5603C47.0494 52.5703 48.5794 52.8703 50.0094 53.4603C51.7094 54.1603 54.1094 58.4603 55.1094 59.9603C55.2894 60.2203 55.5894 60.3803 55.9094 60.3603H56.1094L61.9094 59.1603H62.4094C63.7494 59.1203 64.8594 60.1803 64.8994 61.5103C64.9294 62.7003 64.0894 63.7403 62.9094 63.9603L54.9094 65.5603H53.9094C53.3094 65.4603 52.7794 65.1403 52.4094 64.6603L51.1094 62.9603V71.9603C51.1094 72.0603 51.2094 72.0603 51.2094 72.1603L57.3094 88.8603C57.7694 90.0903 57.1494 91.4603 55.9194 91.9203C55.8894 91.9303 55.8494 91.9503 55.8094 91.9603C55.5494 92.0403 55.2794 92.0803 55.0094 92.0603C53.9894 92.0603 53.0694 91.4203 52.7094 90.4603L47.6094 76.3603C47.3494 75.6503 46.6694 75.1703 45.9094 75.1603C44.9194 75.1503 44.1194 75.9503 44.1094 76.9403C44.1094 76.9503 44.1094 76.9503 44.1094 76.9603V80.1603C44.2294 80.7903 44.0894 81.4403 43.7094 81.9603L37.2094 90.9603C36.7594 91.6103 35.9994 91.9903 35.2094 91.9603C34.7194 91.9303 34.2394 91.8003 33.8094 91.5603C32.7394 90.7603 32.4794 89.2703 33.2094 88.1603L39.0094 80.0603C39.1194 79.8803 39.1894 79.6703 39.2094 79.4603L39.1094 72.3603C39.0894 72.1503 39.1294 71.9503 39.2094 71.7603V62.3603C39.2094 61.8103 38.7594 61.3603 38.2094 61.3603C37.9994 61.3803 37.7894 61.4503 37.6094 61.5603L36.3094 62.5603C36.1894 62.6703 36.0794 62.8103 36.0094 62.9603L33.0094 69.6603C32.6194 70.5203 31.7594 71.0703 30.8094 71.0603C30.2494 71.0603 29.7194 70.8403 29.3094 70.4603C28.4394 69.7703 28.1794 68.5403 28.7094 67.5603L32.0094 60.2603C32.1094 60.1603 32.1094 59.9603 32.2094 59.8603L32.5094 59.5603L32.6094 59.4603C32.6094 59.4603 39.5094 54.1603 39.8094 53.9603C41.5694 53.0403 43.5294 52.5603 45.5094 52.5603Z" fill="#424242" style="fill:#424242;fill:color(display-p3 0.2588 0.2588 0.2588);fill-opacity:1;"/>
</g>
<path d="M71.6094 38.97C75.1992 38.97 78.1094 36.0598 78.1094 32.47C78.1094 28.8801 75.1992 25.97 71.6094 25.97C68.0195 25.97 65.1094 28.8801 65.1094 32.47C65.1094 36.0598 68.0195 38.97 71.6094 38.97Z" fill="black" style="fill:black;fill-opacity:1;"/>
<path d="M93.3102 59.0601L84.6102 52.0601C84.3302 51.8701 84.1202 51.5901 84.0102 51.2601L79.4102 43.0601C78.6602 41.7201 77.4502 40.6901 76.0102 40.1601C72.6102 39.1601 67.7102 39.7601 65.3102 42.3601L57.6102 50.7601C56.8002 51.4101 56.5202 52.5001 56.9102 53.4601L60.6102 62.8601C61.0902 64.0901 62.4702 64.7101 63.7102 64.2601C63.9702 64.1901 64.2102 64.0501 64.4102 63.8601V65.6601L64.2102 75.3601L57.9102 87.5601C57.1502 89.1001 57.7802 90.9701 59.3202 91.7201C60.8002 92.4501 62.6002 91.9001 63.4102 90.4601L69.9102 77.7601C70.1102 77.4301 70.2202 77.0501 70.2102 76.6601C70.3302 76.3401 70.4002 76.0001 70.4102 75.6601L70.5102 68.2601C70.5002 67.3901 71.2002 66.6701 72.0702 66.6601C72.0802 66.6601 72.1002 66.6601 72.1102 66.6601C72.7702 66.6401 73.3802 67.0401 73.6102 67.6601L82.2102 90.0601C82.8202 91.6601 84.6102 92.4701 86.2102 91.8601C87.8102 91.2501 88.6202 89.4601 88.0102 87.8601L79.5102 65.5601C79.1902 64.6301 79.0202 63.6501 79.0102 62.6601V52.2601L80.2102 54.4601C80.3102 54.5601 80.3102 54.6601 80.4102 54.7601C80.5102 54.8601 80.7102 55.0601 80.8102 55.2601L90.3102 62.9601C91.3402 63.7901 92.8502 63.6301 93.6802 62.5901C93.6902 62.5801 93.7002 62.5701 93.7102 62.5601C94.5502 61.4801 94.3702 59.9301 93.3102 59.0601ZM62.2102 52.8601L63.9102 50.9601C64.1102 50.7601 64.3102 50.8601 64.3102 51.1601V59.5601L62.0102 53.7601C62.0102 53.3601 62.0102 53.0601 62.2102 52.8601Z" fill="black" style="fill:black;fill-opacity:1;"/>
<path d="M45.3096 51.76C48.8994 51.76 51.8096 48.8499 51.8096 45.26C51.8096 41.6702 48.8994 38.76 45.3096 38.76C41.7197 38.76 38.8096 41.6702 38.8096 45.26C38.8096 48.8499 41.7197 51.76 45.3096 51.76Z" fill="black" style="fill:black;fill-opacity:1;"/>
<path d="M64.6099 60.4601C64.1199 59.4601 62.9799 58.9501 61.9099 59.2601L56.1099 60.4601C55.7299 60.5301 55.3399 60.3801 55.1099 60.0601C54.0099 58.5601 51.7099 54.1601 50.0099 53.5601C46.7999 52.2201 43.1599 52.4001 40.1099 54.0601C39.8099 54.0601 32.9099 59.4601 32.9099 59.4601L32.8099 59.5601L32.5099 59.8601C32.3999 59.9701 32.3399 60.1101 32.3099 60.2601L29.0099 67.5601C28.5299 68.5501 28.7799 69.7401 29.6099 70.4601C30.6199 71.3301 32.1399 71.2201 33.0099 70.2101C33.1799 70.0201 33.3099 69.8001 33.4099 69.5601L36.4099 62.8601C36.4799 62.7101 36.5899 62.5701 36.7099 62.4601L38.0099 61.4601C38.4499 61.1301 39.0799 61.2201 39.4099 61.6601C39.5399 61.8301 39.6099 62.0401 39.6099 62.2601V71.6601C39.6099 71.8601 39.5099 72.0601 39.5099 72.2601L39.6099 79.3601C39.5899 79.5701 39.5199 79.7801 39.4099 79.9601L33.6099 88.0601C32.8399 89.1601 33.1099 90.6901 34.2099 91.4601C35.3099 92.2301 36.8399 91.9601 37.6099 90.8601L44.1099 81.8601C44.4899 81.3401 44.6299 80.6901 44.5099 80.0601V76.8601C44.4999 75.8701 45.2999 75.0701 46.2899 75.0601C46.2999 75.0601 46.2999 75.0601 46.3099 75.0601C47.0699 75.0701 47.7499 75.5501 48.0099 76.2601L53.1099 90.3601C53.5999 91.5901 54.9399 92.2401 56.2099 91.8601C57.4599 91.3901 58.1099 90.0301 57.7099 88.7601L51.3099 72.0601C51.3099 71.9601 51.2099 71.9601 51.2099 71.8601V62.8601L52.5099 64.5601C52.8799 65.0401 53.4099 65.3601 54.0099 65.4601H55.0099L63.0099 63.8601C64.2599 63.6401 65.0999 62.4501 64.8699 61.1901C64.8299 60.9401 64.7399 60.6901 64.6099 60.4601Z" fill="black" style="fill:black;fill-opacity:1;"/>
<path d="M52.9098 17.6602C51.3098 18.7602 19.8098 49.9602 19.8098 49.9602C19.8098 49.9602 17.2098 52.2602 19.0098 54.6602C20.7098 56.8602 23.3098 55.7602 24.6098 54.5602C25.9098 53.3602 54.3098 25.5602 55.5098 24.1602C56.6998 22.5702 56.9298 20.4702 56.1098 18.6602C55.3098 17.0602 54.0098 16.8602 52.9098 17.6602Z" fill="#FFF170" style="fill:#FFF170;fill:color(display-p3 1.0000 0.9451 0.4392);fill-opacity:1;"/>
<path d="M15.51 63.7702C17.3325 63.7702 18.81 62.2927 18.81 60.4702C18.81 58.6476 17.3325 57.1702 15.51 57.1702C13.6874 57.1702 12.21 58.6476 12.21 60.4702C12.21 62.2927 13.6874 63.7702 15.51 63.7702Z" fill="#FFF170" style="fill:#FFF170;fill:color(display-p3 1.0000 0.9451 0.4392);fill-opacity:1;"/>
</svg>

<?xml version="1.0" encoding="utf-8"?>
<!-- Generator: Adobe Illustrator 25.2.3, SVG Export Plug-In . SVG Version: 6.00 Build 0)  -->
<svg version="1.1" id="Layer_1" xmlns="http://www.w3.org/2000/svg" xmlns:xlink="http://www.w3.org/1999/xlink" x="0px" y="0px"
	 viewBox="0 0 128 128" style="enable-background:new 0 0 128 128;" xml:space="preserve">
<g>
	<path style="fill:#F2A600;" d="M69.61,6.36l52.2,52c2.99,3.13,2.9,8.08-0.2,11.1l-52,52.2c-3.12,3.12-8.18,3.12-11.3,0l-52-52.2
		c-3.04-3.04-3.13-7.95-0.2-11.1l52.2-52C61.43,3.25,66.49,3.25,69.61,6.36z"/>
	<path style="fill:#FFCC32;" d="M64.71,10.46l48.5,48.4c2.79,2.89,2.71,7.49-0.18,10.28c-0.01,0.01-0.01,0.01-0.02,0.02l-48.4,48.5
		c-2.9,2.9-7.59,2.9-10.49,0.01c0,0,0,0-0.01-0.01l-48.3-48.5c-2.9-2.79-2.99-7.39-0.21-10.29c0,0,0,0,0.01-0.01l48.6-48.4
		C57.11,7.56,61.81,7.56,64.71,10.46C64.71,10.46,64.71,10.46,64.71,10.46z"/>
	<g style="opacity:0.2;">
		<path style="fill:#424242;" d="M71.61,25.96c3.59,0,6.5,2.91,6.5,6.5c0,3.59-2.91,6.5-6.5,6.5s-6.5-2.91-6.5-6.5
			c-0.01-3.58,2.9-6.49,6.48-6.5C71.6,25.96,71.61,25.96,71.61,25.96"/>
		<path style="fill:#424242;" d="M72.51,39.66c1.15,0,2.3,0.17,3.4,0.5c1.48,0.47,2.7,1.51,3.4,2.9l4.5,8.2c0.2,0.3,0.4,0.5,0.6,0.8
			l8.8,7.1c1.01,0.85,1.19,2.34,0.4,3.4c-0.47,0.57-1.16,0.9-1.9,0.9c-0.54-0.01-1.06-0.19-1.5-0.5l-9.5-7.7
			c-0.16-0.14-0.3-0.31-0.4-0.5c-0.1-0.1-0.1-0.2-0.2-0.3l-1.2-2.2v10.5c0.01,0.99,0.18,1.97,0.5,2.9l8.5,22.2
			c0.6,1.6-0.2,3.39-1.8,4c-0.36,0.11-0.73,0.18-1.1,0.2c-1.28-0.04-2.41-0.82-2.9-2l-8.5-22.3c-0.23-0.62-0.84-1.02-1.5-1
			c-0.87-0.01-1.59,0.69-1.6,1.56c0,0.01,0,0.03,0,0.04l-0.1,7.4c-0.02,0.34-0.09,0.68-0.2,1c-0.01,0.39-0.11,0.76-0.3,1.1
			l-6.4,12.6c-0.59,0.98-1.65,1.59-2.8,1.6c-0.48,0.01-0.96-0.1-1.4-0.3c-1.51-0.81-2.09-2.68-1.3-4.2l6.3-12.2l0.2-9.7v-1.8
			c-0.2,0.19-0.44,0.33-0.7,0.4c-0.29,0.11-0.59,0.18-0.9,0.2c-0.99,0-1.89-0.59-2.3-1.5l-3.7-9.4c-0.4-0.95-0.12-2.06,0.7-2.7
			l7.7-8.4C66.91,40.56,69.81,39.66,72.51,39.66 M64.41,59.46v-8.4c0-0.2-0.1-0.2-0.2-0.2s-0.1,0-0.2,0.1l-1.7,1.9
			c-0.21,0.21-0.29,0.52-0.2,0.8L64.41,59.46"/>
		<path style="fill:#424242;" d="M45.31,38.76c3.59,0,6.5,2.91,6.5,6.5s-2.91,6.5-6.5,6.5s-6.5-2.91-6.5-6.5l0,0
			c-0.01-3.58,2.9-6.49,6.48-6.5C45.3,38.76,45.31,38.76,45.31,38.76"/>
		<path style="fill:#424242;" d="M45.51,52.56c1.54,0.01,3.07,0.31,4.5,0.9c1.7,0.7,4.1,5,5.1,6.5c0.18,0.26,0.48,0.42,0.8,0.4h0.2
			l5.8-1.2h0.5c1.34-0.04,2.45,1.02,2.49,2.35c0.03,1.19-0.81,2.23-1.99,2.45l-8,1.6h-1c-0.6-0.1-1.13-0.42-1.5-0.9l-1.3-1.7v9
			c0,0.1,0.1,0.1,0.1,0.2l6.1,16.7c0.46,1.23-0.16,2.6-1.39,3.06c-0.03,0.01-0.07,0.03-0.11,0.04c-0.26,0.08-0.53,0.12-0.8,0.1
			c-1.02,0-1.94-0.64-2.3-1.6l-5.1-14.1c-0.26-0.71-0.94-1.19-1.7-1.2c-0.99-0.01-1.79,0.79-1.8,1.78c0,0.01,0,0.01,0,0.02v3.2
			c0.12,0.63-0.02,1.28-0.4,1.8l-6.5,9c-0.45,0.65-1.21,1.03-2,1c-0.49-0.03-0.97-0.16-1.4-0.4c-1.07-0.8-1.33-2.29-0.6-3.4l5.8-8.1
			c0.11-0.18,0.18-0.39,0.2-0.6l-0.1-7.1c-0.02-0.21,0.02-0.41,0.1-0.6v-9.4c0-0.55-0.45-1-1-1c-0.21,0.02-0.42,0.09-0.6,0.2l-1.3,1
			c-0.12,0.11-0.23,0.25-0.3,0.4l-3,6.7c-0.39,0.86-1.25,1.41-2.2,1.4c-0.56,0-1.09-0.22-1.5-0.6c-0.87-0.69-1.13-1.92-0.6-2.9
			l3.3-7.3l0,0c0.1-0.1,0.1-0.3,0.2-0.4l0,0l0.3-0.3l0,0l0.1-0.1c0,0,6.9-5.3,7.2-5.5C41.57,53.04,43.53,52.56,45.51,52.56"/>
	</g>
	
		<linearGradient id="SVGID_1_" gradientUnits="userSpaceOnUse" x1="75.2721" y1="-1800.9038" x2="75.2721" y2="-1869.7938" gradientTransform="matrix(1 0 0 -1 -3.66 -1776.0901)">
		<stop  offset="0" style="stop-color:#424242"/>
		<stop  offset="1" style="stop-color:#212121"/>
	</linearGradient>
	<circle style="fill:url(#SVGID_1_);" cx="71.61" cy="32.47" r="6.5"/>
	
		<linearGradient id="SVGID_2_" gradientUnits="userSpaceOnUse" x1="79.1502" y1="-1800.9038" x2="79.1502" y2="-1869.7938" gradientTransform="matrix(1 0 0 -1 -3.66 -1776.0902)">
		<stop  offset="0" style="stop-color:#424242"/>
		<stop  offset="1" style="stop-color:#212121"/>
	</linearGradient>
	<path style="fill:url(#SVGID_2_);" d="M93.31,59.06l-8.7-7c-0.28-0.19-0.49-0.47-0.6-0.8l-4.6-8.2c-0.75-1.34-1.96-2.37-3.4-2.9
		c-3.4-1-8.3-0.4-10.7,2.2l-7.7,8.4c-0.81,0.65-1.09,1.74-0.7,2.7l3.7,9.4c0.48,1.23,1.86,1.85,3.1,1.4c0.26-0.07,0.5-0.21,0.7-0.4
		v1.8l-0.2,9.7l-6.3,12.2c-0.76,1.54-0.13,3.41,1.41,4.16c1.48,0.73,3.28,0.18,4.09-1.26l6.5-12.7c0.2-0.33,0.31-0.71,0.3-1.1
		c0.12-0.32,0.19-0.66,0.2-1l0.1-7.4c-0.01-0.87,0.69-1.59,1.56-1.6c0.01,0,0.03,0,0.04,0c0.66-0.02,1.27,0.38,1.5,1l8.6,22.4
		c0.61,1.6,2.4,2.41,4,1.8s2.41-2.4,1.8-4l-8.5-22.3c-0.32-0.93-0.49-1.91-0.5-2.9v-10.4l1.2,2.2c0.1,0.1,0.1,0.2,0.2,0.3
		s0.3,0.3,0.4,0.5l9.5,7.7c1.03,0.83,2.54,0.67,3.37-0.37c0.01-0.01,0.02-0.02,0.03-0.03C94.55,61.48,94.37,59.93,93.31,59.06z
		 M62.21,52.86l1.7-1.9c0.2-0.2,0.4-0.1,0.4,0.2v8.4l-2.3-5.8C62.01,53.36,62.01,53.06,62.21,52.86z"/>
	
		<linearGradient id="SVGID_3_" gradientUnits="userSpaceOnUse" x1="48.9721" y1="-1800.9038" x2="48.9721" y2="-1869.7938" gradientTransform="matrix(1 0 0 -1 -3.66 -1776.0901)">
		<stop  offset="0" style="stop-color:#424242"/>
		<stop  offset="1" style="stop-color:#212121"/>
	</linearGradient>
	<circle style="fill:url(#SVGID_3_);" cx="45.31" cy="45.26" r="6.5"/>
	
		<linearGradient id="SVGID_4_" gradientUnits="userSpaceOnUse" x1="50.5016" y1="-1800.9038" x2="50.5016" y2="-1869.7938" gradientTransform="matrix(1 0 0 -1 -3.66 -1776.0902)">
		<stop  offset="0" style="stop-color:#424242"/>
		<stop  offset="1" style="stop-color:#212121"/>
	</linearGradient>
	<path style="fill:url(#SVGID_4_);" d="M64.61,60.46c-0.49-1-1.63-1.51-2.7-1.2l-5.8,1.2c-0.38,0.07-0.77-0.08-1-0.4
		c-1.1-1.5-3.4-5.9-5.1-6.5c-3.21-1.34-6.85-1.16-9.9,0.5c-0.3,0-7.2,5.4-7.2,5.4l-0.1,0.1l0,0l-0.3,0.3l0,0
		c-0.11,0.11-0.17,0.25-0.2,0.4l0,0l-3.3,7.3c-0.48,0.99-0.23,2.18,0.6,2.9c1.01,0.87,2.53,0.76,3.4-0.25
		c0.17-0.19,0.3-0.41,0.4-0.65l3-6.7c0.07-0.15,0.18-0.29,0.3-0.4l1.3-1c0.44-0.33,1.07-0.24,1.4,0.2c0.13,0.17,0.2,0.38,0.2,0.6
		v9.4c0,0.2-0.1,0.4-0.1,0.6l0.1,7.1c-0.02,0.21-0.09,0.42-0.2,0.6l-5.8,8.1c-0.77,1.1-0.5,2.63,0.6,3.4c1.1,0.77,2.63,0.5,3.4-0.6
		l0,0l6.5-9c0.38-0.52,0.52-1.17,0.4-1.8v-3.2c-0.01-0.99,0.79-1.79,1.78-1.8c0.01,0,0.01,0,0.02,0c0.76,0.01,1.44,0.49,1.7,1.2
		l5.1,14.1c0.49,1.23,1.83,1.88,3.1,1.5c1.25-0.47,1.9-1.83,1.5-3.1l-6.4-16.7c0-0.1-0.1-0.1-0.1-0.2v-9l1.3,1.7
		c0.37,0.48,0.9,0.8,1.5,0.9h1l8-1.6c1.25-0.22,2.09-1.41,1.86-2.67C64.83,60.94,64.74,60.69,64.61,60.46z"/>
	<path style="fill:#FFF170;" d="M52.91,17.66c-1.6,1.1-33.1,32.3-33.1,32.3s-2.6,2.3-0.8,4.7c1.7,2.2,4.3,1.1,5.6-0.1
		s29.7-29,30.9-30.4c1.19-1.59,1.42-3.69,0.6-5.5C55.31,17.06,54.01,16.86,52.91,17.66z"/>
	<circle style="fill:#FFF170;" cx="15.51" cy="60.47" r="3.3"/>
</g>
</svg>
